X:1
T:Nú árið er liðið í aldanna skaut
T:( Lag, Ég lifi og ég veit )
%%score 1 2 3 4
L:1/8
M:4/4
K:Eb
V:1 treble nm="Tenor Recorder" snm="T. Rec."
V:2 treble nm="Tenor Recorder" snm="T. Rec."
V:3 bass nm="Bassoon" snm="Bsn."
V:4 bass nm="Bassoon" snm="Bsn."
V:1
 E2 | G4 G2 B2 | (e4 e2) e2 | (f2 d2) B2 A2 | G4 z2 G2 | A4 B2 B2 | c4 f2 e2 | e8 | d4 z2 B2 | %9
 c4 A2 G2 | F4 G2 A2 | A4 c2 d2 | e4 z2 e2 | e4 d2 d2 | (d2 c2) G2 c2 | B4 (=A2 A2) | B4 z2 B2 | %17
 f4 d2 B2 | g4 f2 e2 | (e4 d4) | e6 z2 |] %21
V:2
"^Nú" E2 |"^ár------ið     er" E4 E2 F2 |"^lið-----ið     í" (G4 G2) G2 | %3
"^a___----dann-a" A4 F2 F2 |"^skaut          og" G4 z2 G2 |"^al-----drei  það" A4 G2 G2 | %6
"^kem---ur    til" A4 c2 c2 |"^bak___________" (B4 =A4) |"^a,               nú" B4 z2 G2 | %9
"^geng---in     er" A4 A2 G2 |"^sér----hver  þess" F4 =E2 F2 |"^gleð----i     og" F4 A2 B2 | %12
"^þraut         það" B4 z2 G2 |"^gjör--vallt  er" =A4 B2 B2 |"^runn-----ið     á" G4 G2 G2 | %15
"^ei------lífð---ar" F4 (F2 F2) |"^braut         en" F4 z2 B2 |"^minn--ing   þess" A4 A2 A2 | %18
"^víst                  skal           þó" B4 B2 B2 |"^vak__________________________" (c4 B4) | %20
"^a." B6 z2 |] %21
V:3
 E,2 | E,4 E,2 F,2 | (E,4 E,2) E,2 | (D,2 F,2) D,2 D,2 | E,4 z2 =E,2 | F,4 G,2 G,2 | E,4 A,2 A,2 | %7
 (G,4 F,4) | F,4 z2 E,2 | E,4 =E,2 E,2 | C,4 C,2 C,2 | E,4 E,2 F,2 | E,4 z2 E,2 | C,4 B,,2 B,,2 | %14
 E,4 E,2 E,2 | D,4 (C,2 C,2) | D,4 z2 D,2 | D,4 F,2 D,2 | E,4 E,2 G,2 | (A,4 A,4) | G,6 z2 |] %21
V:4
"^Nú" E,2 |"^ár-----ið     er" E,4 E,2 D,2 |"^lið-----ið     í" (C,4 C,2) C,2 | %3
"^al___---dann-a" B,,4 B,,2 B,,2 |"^skaut          og" E,4 z2 C,2 |"^al----drei  það" F,4 E,2 E,2 | %6
"^kem---ur     til" A,,4 A,,2 A,,2 |"^bak___________" (B,,4 C,4) | %8
"^a,               nú" B,,4 z2 E,2 |"^geng---in     er" A,,4 B,,2 B,,2 | %10
"^sérr---hver  þess" A,,4 G,,2 F,,2 |"^gleð----i      og" E,,4 A,,2 A,,2 | %12
"^þraut        það" G,,4 z2 C,2 |"^gjör--vallt   er" F,,4 G,,2 G,,2 | %14
"^runn-----ið      á" E,4 E,2 E,,2 |"^ei------lífð---ar" F,,4 (F,,2 F,,2) | %16
"^braut          en" B,,4 z2 B,,2 |"^minn--ing  þess" A,,4 B,,2 B,,2 | %18
"^víst                  skal           þó" E,4 G,2 G,2 | %19
"^vak__________________________" (F,4 B,,4) |"^a." E,6 z2 |] %21

